; generated by PrusaSlicer 2.5.0 on 2024-05-29 at 18:11:19 UTC

;

; external perimeters extrusion width = 0.45mm
; perimeters extrusion width = 0.45mm
; infill extrusion width = 0.45mm
; solid infill extrusion width = 0.45mm
; top infill extrusion width = 0.40mm
; first layer extrusion width = 0.70mm

M107
M104 S200 ; set temperature
;TYPE:Custom
G28 ; home all axes
G1 Z5 F5000 ; lift nozzle
M109 S200 ; set temperature and wait for it to be reached
G21 ; set units to millimeters
G90 ; use absolute coordinates
M82 ; use absolute distances for extrusion
G92 E0
; Filament gcode
M107
;LAYER_CHANGE
;Z:0.35
;HEIGHT:0.35
G1 Z.35 F7800
G1 E-2 F2400
G92 E0
G1 X70.701 Y88.431 F7800
G1 E2 F2400
;TYPE:Skirt/Brim
;WIDTH:0.7
G1 F1800
G1 X71.642 Y87.801 E2.10293
G1 X72.679 Y87.296 E2.20777
G1 X73.856 Y86.919 E2.3202
G1 X74.988 Y86.726 E2.42464
G1 X98.756 Y85.261 E4.58988
G1 X100.326 Y85.224 E4.73271
G1 X103.122 Y85.441 E4.98774
G1 X105.982 Y86.052 E5.25362
G1 X108.455 Y86.922 E5.49199
G1 X110.989 Y88.193 E5.74982
G1 X113.345 Y89.792 E6.00871
G1 X115.446 Y91.663 E6.26456
G1 X116.423 Y92.723 E6.39564
G1 X117.371 Y93.902 E6.5332
G1 X118.878 Y96.222 E6.78478
G1 X119.508 Y97.749 E6.9349
G1 X119.808 Y99.338 E7.08196
G1 X119.773 Y100.993 E7.23253
G1 X119.626 Y101.805 E7.30749
G1 X119.347 Y102.737 E7.39602
G1 X118.494 Y104.438 E7.56904
G1 X117.036 Y106.534 E7.8012
G1 X115.39 Y108.394 E8.02699
G1 X113.661 Y109.957 E8.23897
G1 X112.244 Y111.012 E8.39957
G1 X110.696 Y111.975 E8.56538
G1 X109.129 Y112.78 E8.72559
G1 X107.381 Y113.498 E8.8974
G1 X105.621 Y114.047 E9.06507
G1 X103.781 Y114.454 E9.23639
G1 X102.026 Y114.688 E9.3974
G1 X100.214 Y114.778 E9.56233
G1 X74.608 Y113.227 E11.89495
G1 X73.087 Y112.857 E12.03732
G1 X71.734 Y112.252 E12.17206
G1 X70.351 Y111.282 E12.32568
G1 X69.41 Y110.323 E12.44784
G1 X68.772 Y109.445 E12.54655
G1 X68.174 Y108.314 E12.66289
G1 X67.798 Y107.262 E12.76446
G1 X67.562 Y106.167 E12.86633
G1 X67.467 Y104.899 E12.98188
G1 X67.474 Y94.769 E13.90307
G1 X67.582 Y93.707 E14.00006
G1 X67.798 Y92.738 E14.09034
G1 X68.41 Y91.19 E14.24174
G1 X69.378 Y89.717 E14.402
G1 X69.906 Y89.133 E14.47364
G1 X70.656 Y88.47 E14.56464
G1 E12.56464 F2400
G92 E0
G1 X110.34 Y101.182 F7800
G1 E2 F2400
;TYPE:Perimeter
;WIDTH:0.7
G1 F1800
G1 X110.942 Y100.329 E2.09491
G1 X111.263 Y99.772 E2.15336
G1 X111.372 Y99.477 E2.182
G1 X111.43 Y99.019 E2.22394
G1 X111.358 Y98.562 E2.26603
G1 X111.909 Y99.379 E2.35561
G1 X112.218 Y99.915 E2.41186
G1 X112.199 Y100.128 E2.4313
G1 X111.935 Y100.595 E2.48009
G1 X111.53 Y101.208 E2.54694
G1 X111.184 Y101.677 E2.59993
G1 X110.853 Y101.374 E2.64076
G1 X110.396 Y101.203 E2.68507
G1 X111.705 Y100.002 F7800
;WIDTH:0.446397
G1 F1800
G1 X111.364 Y100.573 E2.72099
;WIDTH:0.433837
G1 X111.107 Y100.953 E2.74493
G1 E.74493 F2400
G92 E0
G1 X109.005 Y96.882 F7800
G1 E2 F2400
;WIDTH:0.7
G1 F1800
G1 X107.915 Y96.881 E2.09914
G1 X107.298 Y96.952 E2.15562
G1 X106.826 Y97.098 E2.20052
G1 X106.749 Y97.097 E2.20749
G1 X106.19 Y96.909 E2.26115
G1 X105.607 Y96.905 E2.31416
G1 X105.104 Y97.056 E2.36196
G1 X104.568 Y97.426 E2.42115
G1 X104.248 Y97.211 E2.4562
G1 X103.637 Y96.947 E2.51676
G1 X103.082 Y96.883 E2.56755
G1 X102.596 Y96.953 E2.61219
G1 X102.136 Y97.121 E2.65676
G1 X101.932 Y97.016 E2.67761
G1 X101.585 Y96.919 E2.71035
G1 X101.049 Y96.89 E2.75921
G1 X100.704 Y96.955 E2.79107
G1 X100.185 Y97.185 E2.84273
G1 X99.882 Y97.028 E2.87377
G1 X99.453 Y96.916 E2.91408
G1 X99.024 Y96.883 E2.95323
G1 X98.629 Y96.959 E2.98978
G1 X98.031 Y97.192 E3.04819
G1 X97.635 Y97.509 E3.09427
G1 X97.358 Y97.857 E3.13473
G1 X97.129 Y98.396 E3.18797
G1 X97.115 Y98.647 E3.21078
;WIDTH:0.674042
G1 X97.101 Y98.897 E3.23265
G1 X97.062 Y98.648 E3.2546
;WIDTH:0.7
G1 X97.024 Y98.399 E3.27749
G1 X96.818 Y97.804 E3.33478
G1 X96.592 Y97.36 E3.3801
G1 X96.294 Y96.899 E3.43003
G1 X95.833 Y96.403 E3.49157
G1 X95.229 Y95.969 E3.55918
G1 X94.593 Y95.693 E3.62224
G1 X93.958 Y95.54 E3.68159
G1 X93.359 Y95.471 E3.73647
G1 X91.639 Y95.437 E3.89285
G1 X91.108 Y95.505 E3.94155
G1 X90.509 Y95.734 E3.99985
G1 X90.108 Y96.038 E4.04561
G1 X89.606 Y95.703 E4.10052
G1 X89.134 Y95.488 E4.14767
G1 X88.645 Y95.358 E4.19364
;WIDTH:0.745291
G1 X88.594 Y95.327 E4.19952
;WIDTH:0.790583
G1 X88.542 Y95.296 E4.20579
;WIDTH:0.835874
G1 X88.49 Y95.265 E4.21247
;WIDTH:0.881166
G1 X88.439 Y95.234 E4.21954
;WIDTH:0.926457
G1 X88.387 Y95.202 E4.227
;WIDTH:0.971749
G1 X88.335 Y95.171 E4.23487
G1 X87.438 Y95.17 E4.35196
;WIDTH:0.966872
G1 X86.688 Y95.261 E4.45007
G1 X86.644 Y95.301 E4.4577
;WIDTH:0.919003
G1 X86.6 Y95.34 E4.46493
;WIDTH:0.871134
G1 X86.557 Y95.38 E4.47174
;WIDTH:0.823265
G1 X86.513 Y95.419 E4.47815
;WIDTH:0.775396
G1 X86.469 Y95.459 E4.48414
;WIDTH:0.727528
G1 X85.831 Y95.751 E4.55077
;WIDTH:0.7
G1 X85.729 Y95.69 E4.56161
G1 X85.244 Y95.516 E4.60843
;WIDTH:0.746087
G1 X85.15 Y95.479 E4.61831
;WIDTH:0.792175
G1 X85.056 Y95.442 E4.62886
;WIDTH:0.838263
G1 X84.962 Y95.404 E4.6401
;WIDTH:0.884351
G1 X84.868 Y95.367 E4.65201
;WIDTH:0.930439
G1 X84.774 Y95.33 E4.6646
G1 X83.161 Y95.359 E4.86535
;WIDTH:0.883734
G1 X81.549 Y95.387 E5.05513
;WIDTH:0.83703
G1 X80.997 Y95.366 E5.11628
;WIDTH:0.80679
G1 X80.522 Y95.401 E5.16699
;WIDTH:0.84252
G1 X80.287 Y95.457 E5.19403
;WIDTH:0.87825
G1 X80.052 Y95.514 E5.22233
;WIDTH:0.91398
G1 X79.816 Y95.571 E5.25188
G1 X79.62 Y95.701 E5.28066
G1 X79.491 Y95.617 E5.29942
G1 X79.301 Y95.55 E5.32395
;WIDTH:0.86698
G1 X79.112 Y95.483 E5.34711
;WIDTH:0.81998
G1 X78.896 Y95.443 E5.37094
;WIDTH:0.779132
G1 X78.68 Y95.403 E5.39346
;WIDTH:0.738284
G1 X78.463 Y95.363 E5.41468
;WIDTH:0.697436
G1 X77.969 Y95.34 E5.45949
;WIDTH:0.660436
G1 X77.475 Y95.317 E5.50164
;WIDTH:0.65245
G1 X76.643 Y95.404 E5.57192
;WIDTH:0.682809
G1 X76.382 Y95.465 E5.59562
;WIDTH:0.713169
G1 X76.121 Y95.527 E5.62051
;WIDTH:0.714133
G1 X75.702 Y95.717 E5.66325
G1 X75.703 Y95.222 E5.70929
G1 X75.75 Y94.952 E5.73481
G1 X76.011 Y94.902 E5.7595
;WIDTH:0.713169
G1 X76.46 Y94.854 E5.80147
;WIDTH:0.671319
G1 X76.91 Y94.805 E5.84069
;WIDTH:0.637062
G1 X77.792 Y94.755 E5.91291
;WIDTH:0.677267
G1 X78.161 Y94.752 E5.94525
;WIDTH:0.717472
G1 X78.53 Y94.75 E5.97975
;WIDTH:0.757678
G1 X78.899 Y94.747 E6.01641
;WIDTH:0.796753
G1 X79.072 Y94.756 E6.03459
;WIDTH:0.835829
G1 X79.245 Y94.765 E6.05374
;WIDTH:0.874904
G1 X79.417 Y94.774 E6.07388
;WIDTH:0.91398
G1 X79.59 Y94.783 E6.09501
G1 X79.866 Y94.749 E6.12898
;WIDTH:0.87825
G1 X80.142 Y94.714 E6.1615
;WIDTH:0.84252
G1 X80.419 Y94.679 E6.19257
;WIDTH:0.80679
G1 X81.001 Y94.641 E6.25474
;WIDTH:0.83703
G1 X81.524 Y94.626 E6.31273
;WIDTH:0.883734
G1 X83.135 Y94.551 E6.50252
;WIDTH:0.930439
G1 X84.746 Y94.475 E6.70326
G1 X84.875 Y94.445 E6.71972
;WIDTH:0.884351
G1 X85.003 Y94.414 E6.73529
;WIDTH:0.838263
G1 X85.132 Y94.383 E6.74997
;WIDTH:0.792175
G1 X85.26 Y94.352 E6.76376
;WIDTH:0.746087
G1 X85.389 Y94.321 E6.77667
;WIDTH:0.7
G1 X85.64 Y94.305 E6.7995
;WIDTH:0.727528
G1 X86.194 Y94.285 E6.85217
;WIDTH:0.775396
G1 X86.266 Y94.305 E6.85982
;WIDTH:0.823265
G1 X86.339 Y94.324 E6.86799
;WIDTH:0.871134
G1 X86.411 Y94.344 E6.87669
;WIDTH:0.919003
G1 X86.484 Y94.363 E6.88591
;WIDTH:0.966872
G1 X86.556 Y94.383 E6.89565
G1 X86.777 Y94.362 E6.92435
;WIDTH:0.953376
G1 X87.748 Y94.295 E7.04882
;WIDTH:0.971749
G1 X88.333 Y94.276 E7.12513
G1 X88.406 Y94.249 E7.13528
;WIDTH:0.926457
G1 X88.479 Y94.222 E7.14492
;WIDTH:0.881166
G1 X88.552 Y94.195 E7.15405
;WIDTH:0.835874
G1 X88.625 Y94.168 E7.16267
;WIDTH:0.790583
G1 X88.698 Y94.14 E7.17077
;WIDTH:0.745291
G1 X88.77 Y94.113 E7.17836
;WIDTH:0.7
G1 X99.231 Y93.472 E8.13134
G1 X100.049 Y93.448 E8.20575
G1 X101 Y93.481 E8.2923
G1 X101.755 Y93.556 E8.36123
G1 X102.494 Y93.672 E8.42929
G1 X103.488 Y93.897 E8.52191
G1 X104.459 Y94.194 E8.61431
G1 X105.226 Y94.487 E8.68897
G1 X105.961 Y94.822 E8.76236
G1 X106.791 Y95.267 E8.84797
G1 X107.607 Y95.783 E8.93581
G1 X108.28 Y96.273 E9.01149
G1 X108.96 Y96.843 E9.09216
G1 E7.09216 F2400
G92 E0
G1 X106.216 Y104.09 F7800
G1 E2 F2400
;WIDTH:0.702783
G1 F1800
G1 X106.523 Y104.363 E2.03757
G1 X107.027 Y104.59 E2.08809
G1 X106.464 Y104.916 E2.14757
G1 X105.72 Y105.292 E2.22372
G1 X105.94 Y104.8 E2.27292
G1 X106.194 Y104.145 E2.33707
G1 E.33707 F2400
G92 E0
G1 X97.163 Y99.391 F7800
G1 E2 F2400
;WIDTH:0.629821
G1 F1800
G1 X97.143 Y99.472 E2.00674
;WIDTH:0.587979
G1 X97.123 Y99.553 E2.01298
;WIDTH:0.546137
G1 X97.103 Y99.634 E2.0187
;WIDTH:0.504296
G1 X97.084 Y99.715 E2.02392
;WIDTH:0.462454
G1 X97.064 Y99.797 E2.02863
;WIDTH:0.420613
G1 X97.065 Y99.941 E2.0359
G1 X97.525 Y100.03 E2.05944
;WIDTH:0.464706
G1 X97.407 Y99.806 E2.07376
;WIDTH:0.5088
G1 X97.289 Y99.583 E2.08969
;WIDTH:0.54914
G1 X97.247 Y99.519 E2.09498
;WIDTH:0.58948
G1 X97.205 Y99.455 E2.10071
;WIDTH:0.629821
G1 X97.163 Y99.391 E2.1069
G1 E.1069 F2400
G92 E0
G1 X95.54 Y101.821 F7800
G1 E2 F2400
;TYPE:External perimeter
;WIDTH:0.705719
G1 F1800
G1 X95.671 Y101.601 E2.02347
G1 E.02347 F2400
G92 E0
G1 X85.371 Y99.411 F7800
G1 E2 F2400
;TYPE:Perimeter
;WIDTH:0.617339
G1 F1800
G1 X85.35 Y99.586 E2.01384
;WIDTH:0.629855
G1 X85.348 Y100.108 E2.05602
;WIDTH:0.659701
G1 X85.443 Y100.481 E2.08878
G1 X85.429 Y100.524 E2.09256
G1 X85.034 Y100.914 E2.13975
G1 X84.818 Y101.338 E2.18026
G1 X84.798 Y100.158 E2.2806
;WIDTH:0.629855
G1 X84.789 Y99.532 E2.33118
;WIDTH:0.617339
G1 X85.312 Y99.424 E2.37336
G1 E.37336 F2400
G92 E0
G1 X80.163 Y99.58 F7800
G1 E2 F2400
;WIDTH:0.794485
G1 F1800
G1 X80.639 Y99.669 E2.05068
G1 X80.646 Y100.903 E2.17991
G1 X80.509 Y100.671 E2.20813
G1 X80.057 Y100.267 E2.27166
G1 X79.55 Y100.023 E2.3305
;WIDTH:0.794087
G1 X79.36 Y100 E2.35053
;WIDTH:0.744503
G1 X79.17 Y99.976 E2.36917
G1 X79.362 Y99.952 E2.388
;WIDTH:0.794087
G1 X79.554 Y99.928 E2.40822
;WIDTH:0.794485
G1 X79.846 Y99.805 E2.4414
G1 X80.114 Y99.615 E2.4758
G1 X78.631 Y99.967 F7800
;WIDTH:0.698335
G1 F1800
G1 X78.461 Y100.016 E2.49178
;WIDTH:0.655124
G1 X78.292 Y100.066 E2.50665
;WIDTH:0.611914
G1 X78.123 Y100.115 E2.52042
;WIDTH:0.568704
G1 X77.639 Y100.375 E2.55987
G1 X77.617 Y100.098 E2.5798
G1 X77.637 Y99.552 E2.61908
G1 X78.12 Y99.789 E2.65768
;WIDTH:0.611914
G1 X78.29 Y99.849 E2.67176
;WIDTH:0.655124
G1 X78.46 Y99.908 E2.68698
;WIDTH:0.698335
G1 X78.574 Y99.947 E2.69789
G1 E.69789 F2400
G92 E0
G1 X80.711 Y102.942 F7800
G1 E2 F2400
;WIDTH:0.7
G1 F1800
G1 X80.908 Y103.484 E2.05245
G1 X81.102 Y103.781 E2.0847
G1 X81.536 Y104.156 E2.13684
;WIDTH:0.744105
G1 X81.647 Y104.229 E2.14981
;WIDTH:0.788211
G1 X81.757 Y104.303 E2.16363
;WIDTH:0.832316
G1 X81.868 Y104.377 E2.1783
;WIDTH:0.876422
G1 X81.979 Y104.451 E2.19383
;WIDTH:0.920528
G1 X82.09 Y104.525 E2.21022
G1 X82.338 Y104.57 E2.24128
;WIDTH:0.90289
G1 X82.888 Y104.601 E2.30766
G1 X82.973 Y104.566 E2.31872
;WIDTH:0.856112
G1 X83.058 Y104.532 E2.32917
;WIDTH:0.809335
G1 X83.143 Y104.497 E2.33898
;WIDTH:0.762558
G1 X83.478 Y104.356 E2.37526
;WIDTH:0.731279
G1 X83.812 Y104.216 E2.40988
;WIDTH:0.7
G1 X84.234 Y103.88 E2.45893
G1 X84.558 Y103.444 E2.50837
G1 X84.739 Y102.927 E2.55817
G1 X84.831 Y103.144 E2.57965
G1 X85.105 Y103.595 E2.6276
G1 X85.424 Y103.932 E2.66981
G1 X86.07 Y104.323 E2.73842
G1 X86.525 Y104.492 E2.7826
G1 X87.151 Y104.618 E2.84066
G1 X87.519 Y104.648 E2.87426
G1 X88.378 Y104.61 E2.95236
G1 X88.998 Y104.461 E3.01036
G1 X89.583 Y104.203 E3.06854
G1 X90.082 Y103.848 E3.12418
G1 X90.509 Y104.236 E3.17665
G1 X91.05 Y104.445 E3.22935
G1 X91.491 Y104.514 E3.26994
G1 X92.132 Y104.477 E3.32834
G1 X92.927 Y104.482 E3.40058
G1 X93.602 Y104.438 E3.4621
G1 X94.367 Y104.293 E3.53293
G1 X94.858 Y104.119 E3.58032
G1 X95.168 Y104.401 E3.61841
G1 X95.61 Y104.675 E3.66572
G1 X96.191 Y104.889 E3.72199
G1 X96.552 Y104.945 E3.75521
G1 X96.967 Y104.954 E3.79294
G1 X97.457 Y104.862 E3.8383
G1 X97.889 Y104.706 E3.88006
G1 X98.215 Y104.495 E3.91536
G1 X98.549 Y104.62 E3.94779
G1 X99.197 Y104.678 E4.00697
G1 X99.621 Y104.591 E4.04636
G1 X100.099 Y104.363 E4.0945
G1 X100.267 Y104.468 E4.11245
G1 X100.735 Y104.636 E4.15768
G1 X100.698 Y104.984 E4.1895
G1 X100.728 Y105.454 E4.23228
G1 X100.964 Y106.105 E4.29528
G1 X101.269 Y106.492 E4.34004
G1 X100.709 Y106.537 E4.39114
G1 X99.835 Y106.551 E4.47062
G1 X99.208 Y106.527 E4.52765
G1 X83.97 Y105.592 E5.91587
;WIDTH:0.731279
G1 X83.575 Y105.552 E5.95376
;WIDTH:0.762558
G1 X83.18 Y105.513 E5.99345
;WIDTH:0.801903
G1 X83.104 Y105.488 E6.00187
;WIDTH:0.841249
G1 X83.028 Y105.464 E6.01075
;WIDTH:0.880595
G1 X82.953 Y105.439 E6.02009
;WIDTH:0.887268
G1 X82.551 Y105.412 E6.06769
;WIDTH:0.920528
G1 X81.972 Y105.359 E6.13923
G1 X81.794 Y105.371 E6.16116
;WIDTH:0.876422
G1 X81.616 Y105.382 E6.18193
;WIDTH:0.832316
G1 X81.438 Y105.393 E6.20157
;WIDTH:0.788211
G1 X81.26 Y105.404 E6.22005
;WIDTH:0.744105
G1 X81.082 Y105.415 E6.2374
;WIDTH:0.7
G1 X77.989 Y105.233 E6.51916
;WIDTH:0.684901
G1 X76.806 Y105.168 E6.62428
;WIDTH:0.710146
G1 X76.297 Y105.117 E6.67156
;WIDTH:0.741826
G1 X75.754 Y105.03 E6.72488
G1 X75.713 Y104.799 E6.74765
G1 X75.713 Y104.22 E6.80389
G1 X76.009 Y104.371 E6.83607
G1 X76.386 Y104.49 E6.87448
;WIDTH:0.710146
G1 X76.81 Y104.552 E6.91406
;WIDTH:0.684901
G1 X77.233 Y104.614 E6.95206
G1 X78.006 Y104.624 E7.02066
;WIDTH:0.69917
G1 X78.409 Y104.577 E7.05742
;WIDTH:0.7
G1 X79.01 Y104.414 E7.11406
G1 X79.436 Y104.227 E7.1564
G1 X80.01 Y103.845 E7.21907
G1 X80.403 Y103.434 E7.2708
G1 X80.679 Y102.992 E7.31815
G1 E5.31815 F2400
G92 E0
G1 X79.512 Y99.207 F7800
G1 E2 F2400
G1 F1800
G1 X79.638 Y99.144 E2.01281
G1 X80.031 Y98.758 E2.06292
G1 X80.346 Y98.933 E2.09567
G1 X80.661 Y99.004 E2.12502
G1 X81.317 Y98.972 E2.18474
G1 X81.322 Y101.543 E2.41851
G1 X81.298 Y102.708 E2.52445
G1 X81.421 Y103.099 E2.56176
G1 X81.582 Y103.381 E2.59129
G1 X81.904 Y103.651 E2.62942
G1 X82.251 Y103.808 E2.66405
G1 X82.644 Y103.884 E2.70052
G1 X83.056 Y103.846 E2.73811
G1 X83.38 Y103.74 E2.76912
G1 X83.711 Y103.524 E2.80504
G1 X84.004 Y103.155 E2.84787
G1 X84.125 Y102.803 E2.88173
G1 X84.217 Y102.345 E2.92419
G1 X84.203 Y98.976 E3.23058
G1 X84.643 Y98.965 E3.27059
G1 X85.283 Y98.833 E3.33002
G1 X85.591 Y98.644 E3.36293
G1 X85.65 Y98.717 E3.37147
G1 X86.068 Y99.042 E3.41961
G1 X86.001 Y99.195 E3.43482
G1 X85.929 Y99.656 E3.47722
G1 X85.929 Y100.004 E3.50882
G1 X86.085 Y100.439 E3.55088
G1 X86.364 Y100.757 E3.58932
G1 X86.22 Y100.787 E3.60265
G1 X85.8 Y101.003 E3.6456
G1 X85.53 Y101.26 E3.67954
G1 X85.292 Y101.733 E3.72767
G1 X85.226 Y102.154 E3.76636
G1 X85.287 Y102.608 E3.80808
G1 X85.5 Y103.083 E3.85543
G1 X85.823 Y103.451 E3.89989
G1 X86.375 Y103.778 E3.95826
G1 X86.649 Y103.879 E3.98477
G1 X87.496 Y104.023 E4.06288
G1 X88.449 Y103.962 E4.14974
G1 X89.001 Y103.794 E4.20222
G1 X89.427 Y103.564 E4.24628
G1 X89.887 Y103.181 E4.30072
G1 X90.213 Y102.771 E4.34833
G1 X90.236 Y102.892 E4.35949
G1 X90.436 Y103.3 E4.40081
G1 X90.78 Y103.665 E4.44649
G1 X91.163 Y103.83 E4.48437
G1 X91.529 Y103.89 E4.51811
G1 X92.138 Y103.852 E4.5736
G1 X92.895 Y103.858 E4.64236
G1 X93.503 Y103.821 E4.69775
G1 X94.017 Y103.738 E4.7451
G1 X94.565 Y103.567 E4.79731
G1 X95.04 Y103.296 E4.84698
G1 X95.371 Y103.761 E4.89889
G1 X95.938 Y104.143 E4.96107
G1 X96.287 Y104.272 E4.99483
G1 X96.734 Y104.337 E5.03594
G1 X97.334 Y104.249 E5.09111
G1 X97.678 Y104.104 E5.12501
G1 X98.169 Y103.754 E5.17991
G1 X98.598 Y103.984 E5.22414
G1 X99.009 Y104.051 E5.26203
G1 X99.342 Y104.024 E5.29244
G1 X99.793 Y103.819 E5.33742
G1 X100.095 Y103.514 E5.37649
G1 X100.179 Y103.621 E5.38887
G1 X100.56 Y103.916 E5.43269
G1 X101.051 Y104.066 E5.47937
G1 X101.443 Y104.035 E5.51515
G1 X101.504 Y103.996 E5.52174
;WIDTH:0.656298
G1 X101.565 Y103.957 E5.52788
;WIDTH:0.612597
G1 X101.626 Y103.917 E5.53355
;WIDTH:0.568895
G1 X101.687 Y103.878 E5.53877
;WIDTH:0.525194
G1 X101.749 Y103.839 E5.54352
;WIDTH:0.481492
G1 X101.81 Y103.8 E5.54781
;WIDTH:0.437791
G1 X101.871 Y103.761 E5.55164
;WIDTH:0.433951
G1 X102.022 Y103.656 E5.56127
;WIDTH:0.473812
G1 X102.174 Y103.551 E5.57197
;WIDTH:0.513674
G1 X102.326 Y103.446 E5.58375
;WIDTH:0.518484
G1 X102.467 Y103.192 E5.60251
;WIDTH:0.562974
G1 X102.595 Y102.74 E5.63585
G1 X102.552 Y102.484 E5.65428
;WIDTH:0.525489
G1 X102.509 Y102.228 E5.67129
;WIDTH:0.5034
G1 X102.3 Y101.727 E5.70512
